X: 51
T:Old Joe Clark 1
% Nottingham Music Database
S:Kevin Briggs, via EF
M:4/4
L:1/4
K:A
e|"A"ef =gf|"A"ed cA|"A"ef =gf|"G"e4|"A"ef =gf|"A"ed c2|"A"A/2B/2c/2A/2 "G"B=G\
|"A"A3:||:
E|"A"AA/2B/2 cA|"A"ed c2|"A"AA/2B/2 cA|"G"B2 E2|"A"AA/2B/2 cA|"A"ed c2|\
"A"A/2B/2c/2A/2 "G"B=G|"A"A3:|


